X:417
T: Maria ging geschwind (5-12), S. 28
N: P0687
O: Lothringen
S: MERKELBACH-PINCK, Angelika: Verklingende Weisen, Bd 5, Kassel 1962]
R: geistliches, religises Lied]
M: 4/4
L: 1/8
K: G
D2 | G2D2G2A2 | B4
d4 | dcBAG2A2 | B4z2
D2 | G2D2G2A2 | B4
d4 | dcBAG2A2 | B4z2
B2 | A2G2F2G2 | A4
B4 | BAG2A2A2 | G4z2
B2 | A2G2F2G2 | A4
B4 | BAG2A2A2 | G4z2

@@@ Tune index: 7967
